src/svg/screenshotselection.svg

<svg height="35" viewBox="0 0 35 35" width="35" xmlns="http://www.w3.org/2000/svg"><g fill="none" fill-rule="evenodd"><path d="m23 17.5c0 3.037-2.463 5.5-5.5 5.5-3.038 0-5.5-2.463-5.5-5.5 0-3.038 2.462-5.5 5.5-5.5 3.037 0 5.5 2.462 5.5 5.5" fill="#231f1f" opacity=".15"/><path d="m23 17.5c0 3.037-2.463 5.5-5.5 5.5-3.038 0-5.5-2.463-5.5-5.5 0-3.038 2.462-5.5 5.5-5.5 3.037 0 5.5 2.462 5.5 5.5z" opacity=".3" stroke="#231f1f"/><g fill="#231f1f"><path d="m6 18h11.002v-1h-11.002z" opacity=".85"/><path d="m18 18h11v-1h-11z" opacity=".85"/><path d="m17 17h1v-11h-1z" opacity=".85"/><path d="m17 29h1v-11h-1z" opacity=".85"/></g></g></svg>

<?xml version="1.0" encoding="UTF-8" standalone="no"?>
<svg width="35px" height="35px" viewBox="0 0 35 35" version="1.1" xmlns="http://www.w3.org/2000/svg" xmlns:xlink="http://www.w3.org/1999/xlink">
    <defs></defs>
    <g id="Page-1" stroke="none" stroke-width="1" fill="none" fill-rule="evenodd">
        <g id="screenshotselection">
            <g id="bg-copy" fill="#FFFFFF" opacity="0.00999999978">
                <rect id="bg" x="0" y="0" width="35" height="35"></rect>
            </g>
            <path d="M23,17.5 C23,20.537 20.537,23 17.5,23 C14.462,23 12,20.537 12,17.5 C12,14.462 14.462,12 17.5,12 C20.537,12 23,14.462 23,17.5" id="circle" opacity="0.15" fill="#231F1F"></path>
            <path d="M23,17.5 C23,20.537 20.537,23 17.5,23 C14.462,23 12,20.537 12,17.5 C12,14.462 14.462,12 17.5,12 C20.537,12 23,14.462 23,17.5 L23,17.5 Z" id="circle-border" stroke="#231F1F" opacity="0.3"></path>
            <path d="M6,18 L17.002,18 L17.002,17 L6,17 L6,18 Z" id="line-left" opacity="0.85" fill="#231F1F"></path>
            <path d="M18,18 L29,18 L29,17 L18,17 L18,18 Z" id="line-right" opacity="0.85" fill="#231F1F"></path>
            <path d="M17,17 L18,17 L18,6 L17,6 L17,17 Z" id="line-top" opacity="0.85" fill="#231F1F"></path>
            <path d="M17,29 L18,29 L18,18 L17,18 L17,29 Z" id="line-bottom" opacity="0.85" fill="#231F1F"></path>
        </g>
    </g>
</svg>
